src/assets/images/icons/crosshair.svg

<svg width="24" height="24" viewBox="0 0 24 24" fill="none" xmlns="http://www.w3.org/2000/svg">
<path d="M22 12C22 17.5228 17.5228 22 12 22M22 12C22 6.47715 17.5228 2 12 2M22 12H18M12 22C6.47715 22 2 17.5228 2 12M12 22V18M2 12C2 6.47715 6.47715 2 12 2M2 12H6M12 2V6" stroke="#181D27" stroke-width="2" stroke-linecap="round" stroke-linejoin="round"/>
</svg>

<svg xmlns="http://www.w3.org/2000/svg" fill="none" viewBox="0 0 24 24"><path stroke="#181D27" stroke-linecap="round" stroke-linejoin="round" stroke-width="2" d="M22 12c0 5.523-4.477 10-10 10m10-10c0-5.523-4.477-10-10-10m10 10h-4m-6 10C6.477 22 2 17.523 2 12m10 10v-4M2 12C2 6.477 6.477 2 12 2M2 12h4m6-10v4"/></svg>
